X:0411421
T:[ID 2-76]
T:Bezeichnung standardisiert: Menuet [mit Trio]
T:Menuet Con Trio ex A. \203 Secondo
C:Urheber unbekannt
C:Datum in der hier transkribierten schriftlichen Quelle: 1767
O:Deutschland; Westfalen; Dinker
S:"Tanzsammlung Dahlhoff" Staatsbibliothek zu Berlin, Musiksammlung, Mus. ms. 40182, Buch 04, 14v/1, PDF Nr: 448
S:Scan online: http://resolver.staatsbibliothek-berlin.de/SBB0000969000000448
F:http://simonwascher.info/TradArchiv/Dahlhoff/ file-version 2017-11-21
Z:Erfassung in Capella Richmud Rollenbeck, Konversion nach MusicXML Joergen Lang, Konversion nach abc und abc Lektorat Simon Wascher
L:1/8
M:3/4
K:A
a2A2A2 | A4{AB}A2 | a2d2cd | {c}B4A2 | EFBe ^df | e^dfegf | b2b2a2 | {a}g6 ::
c4(3ABc | {c}B4(3GAB | AcccBA | {A}G4GF | EC (EA)(AG) | AGBAc2 | d2e2ed | {d}c6 H:|
P:Trio
M:3/4
e3 fe2 | c3 dc2 | A2c2d2 | {c}B4A2 | G3 BA2 | B3 dc2 | AccBBA | {G}F6 ::
c3 dc2 | (c>B)(A>G)A2 | B3 cB2 | BAAGG2 | A3 BA2 | ABcde2 | d2eaed | {d}c6 H:|

